X: 422
P: Longways for as many as will
M: 6/4
L: 1/4
K: G
V: 1
c |\
=f3 edc | Bcd dBG |
=f3 efg | AcA AcA |\
=f3 edc | Bcd dBG | (B/c/d)B AFD | GGG G3 |]
V: 2 clef=bass middle=d
z |\
g3 G3 | d3 f3 | g3 d3 | G3 zz  |]\

